X:1
T:James Gibb editions
T:When the twilight gathers fast (II) - Barnby
%%score [ ( 1 2 ) ( 3 4 ) ]
L:1/8
Q:1/4=100
M:3/2
K:D
V:1 treble nm="Midi_74"
V:2 treble 
V:3 bass nm="Midi_74"
V:4 bass 
V:1
!p!"^When the twilight gathers fast (II)""^77. 77. 77. 67""^Joseph Barnby\n(1838-96)" F2 F2 | %1
 F2 E2 F4"^1" A4 | F8 || F2 F2 | G2"^1" F2 G4 B4 | E8 || E2 E2 | F2 E2 F4 ^G4 | A4 || A4 B4 | %10
 c6 d2 B2 c2 | A12 || A4"^1" A2 A2 G2 F2 | G8 || G2 G2 | =c4 c4 B2 A2 |!<(! B8!<)! || c4 | %18
 d6 A2 G2"^1" F2 | E4 || E2 F2 G2 B2 | D8 !>!E4 | !>!D8 || G12 | F12 |] %25
V:2
 D2 D2 | D2 C2 D4 E4 | D8 || ^D2 D2 | E2 ^D2 E4 =D4 | C8 || C2 C2 | D2 C2 D4 ^E4 | F4 || A4 A4 | %10
 A6 F2 ^G2 G2 | A12 || D4 D2 D2 ^D2 D2 | E8 || E2 E2 | E4 E4 D2 D2 | D8 || E4 | D6 D2 ^D2 D2 | %19
 E4 || B,2 B,2 B,2 B,2 | (A,4 D4) C4 | !>!D8 || D12 | D12 |] %25
V:3
 A,2 A,2 | A,2 A,2 A,4 A,4 | A,8 || B,2 B,2 | B,2 B,2 B,4 B,4 | A,8 || A,2 A,2 | A,2 A,2 A,4 C4 | %8
 C4 || C4"^cresc." D4 | E6 F2 D2 E2 | C12 || D4 A,2 A,2 B,2 B,2 | B,8 || B,2 B,2 | %15
 A,4 G,4 F,2 F,2 | (G,4 B,4) || %17
"^1. When the twilight gathers fast,\nWith a quiet still and deep,\nWhen the busy day has passed,\nAnd the weary \"falls on sleep.\"\nWhen the lifelong toil is o'er,\nAt the setting of the sun,\nComes joy for evermore,\nWith the Master's word, \"Well done.\"\n\n2. 'Mid the tread of many feet,\n'Mid the hurry and the throng,\nIn the burden and the heat,\nHave the working hours seemed long?\nSoftly the shadow falls,\nAnd the pilgrim's race is run;\nWhile through celestial halls,\nResounds the glad, \"Well done.\"" A,4 | %18
 A,6 A,2 =C2 C2 | B,4 || %20
 B,2 A,2 G,2"^3. Well worth the daily cross;\nWell worth the earnest toil;\nWell worth reproach and loss,\nThe fight on stranger soil!\nLet us lift our hearts and pray,\nAnd take our journey on;\nWork while 'tis called today,\nWith the thought of that, \"Well done.\"" G,2 | %21
 F,8 G,4 | !>!F,8 || B,12 | A,12 |] %25
V:4
 D,2 D,2 | D,2 A,,2 D,4 C,4 | D,8 || B,,2 B,,2 | E,2 B,,2 E,4 G,,4 | A,,8 || A,,2 A,,2 | %7
 D,2 A,,2 D,4 C,4 | F,4 || F,4 F,4 | E,6 E,2 E,2 E,2 | (A,8 G,4) || F,4 F,2 F,2 B,2 B,2 | E,8 || %14
 E,2 E,2 | A,,4 A,,4 D,2 D,2 | G,8 || G,4 | F,6 F,2 A,2 A,2 | G,4 || G,2 F,2 E,2 G,,2 | A,,8 A,,4 | %22
 !>!D,8 || G,,12 | D,12 |] %25

